X: 36234
T: Scutchers, The
R: reel
M: 4/4
K: Gmajor
DGGG AGGG|DGGG ABcA|DGGG AGAB|cABG ABcA|
DGGG AGGG|DGGG ABcA|DGGG AGAB|ccBc ABcd|
eede gdBd|eede gabg|eede gdBd|cdBc ABcd|
eede gdBd|eede gabg|abga egde|cdBc ABcA:|

